X: 6341
T: Cascade
R: waltz
M: 3/4
K: Gmajor
f2 f>e d>A|F2 F>D F>d|f2 f>d f<b|a4 (3def|
g2 (3efe (3cdc|A2 A>^G B<A|^G>A B>c f>e|d2 d3/2:|
b2 a>A (3FAd|a2 g2- g>e|c>e a>g f<e|f2 d>A d>f|
b2 a2 (3Adf|a2 g2- g>e|c<e a>g B<c|d2- d3/2:|
f2 f>e d>A|F2 F>D F>d|f2- f>d f>b|a2 a>d e>f|
g2 e2 c2|A2- A>^G B>A|^G>A B>c f>e|d2 d3/2:|
g>f g2 b2|d>^c d2 g2|(3Bcd g2 f2|c2 c>B c>d|
a^g a2 b2|f>^e f2 d2|a2- a>^g a>b|g2- g3/2:|

